icons/circle/48/gtk-gnutella.svg

<svg xmlns="http://www.w3.org/2000/svg" viewBox="0 0 48 48">
 <defs>
  <linearGradient id="linearGradient3764" x1="1" x2="47" gradientUnits="userSpaceOnUse" gradientTransform="matrix(0,-1,1,0,-1.5e-6,47.999998)">
   <stop style="stop-color:#dfdfdf;stop-opacity:1"/>
   <stop offset="1" style="stop-color:#e9e9e9;stop-opacity:1"/>
  </linearGradient>
 </defs>
 <g>
  <path d="m 36.31 5 c 5.859 4.062 9.688 10.831 9.688 18.5 c 0 12.426 -10.07 22.5 -22.5 22.5 c -7.669 0 -14.438 -3.828 -18.5 -9.688 c 1.037 1.822 2.306 3.499 3.781 4.969 c 4.085 3.712 9.514 5.969 15.469 5.969 c 12.703 0 23 -10.298 23 -23 c 0 -5.954 -2.256 -11.384 -5.969 -15.469 c -1.469 -1.475 -3.147 -2.744 -4.969 -3.781 z m 4.969 3.781 c 3.854 4.113 6.219 9.637 6.219 15.719 c 0 12.703 -10.297 23 -23 23 c -6.081 0 -11.606 -2.364 -15.719 -6.219 c 4.16 4.144 9.883 6.719 16.219 6.719 c 12.703 0 23 -10.298 23 -23 c 0 -6.335 -2.575 -12.06 -6.719 -16.219 z" style="opacity:0.05"/>
  <path d="m 41.28 8.781 c 3.712 4.085 5.969 9.514 5.969 15.469 c 0 12.703 -10.297 23 -23 23 c -5.954 0 -11.384 -2.256 -15.469 -5.969 c 4.113 3.854 9.637 6.219 15.719 6.219 c 12.703 0 23 -10.298 23 -23 c 0 -6.081 -2.364 -11.606 -6.219 -15.719 z" style="opacity:0.1"/>
  <path d="m 31.25 2.375 c 8.615 3.154 14.75 11.417 14.75 21.13 c 0 12.426 -10.07 22.5 -22.5 22.5 c -9.708 0 -17.971 -6.135 -21.12 -14.75 a 23 23 0 0 0 44.875 -7 a 23 23 0 0 0 -16 -21.875 z" style="opacity:0.2"/>
 </g>
 <g>
  <path d="m 24 1 c 12.703 0 23 10.297 23 23 c 0 12.703 -10.297 23 -23 23 -12.703 0 -23 -10.297 -23 -23 0 -12.703 10.297 -23 23 -23 z" style="fill:url(#linearGradient3764);fill-opacity:1"/>
 </g>
 <g>
  <path d="m 40.03 7.531 c 3.712 4.084 5.969 9.514 5.969 15.469 0 12.703 -10.297 23 -23 23 c -5.954 0 -11.384 -2.256 -15.469 -5.969 4.178 4.291 10.01 6.969 16.469 6.969 c 12.703 0 23 -10.298 23 -23 0 -6.462 -2.677 -12.291 -6.969 -16.469 z" style="opacity:0.1"/>
 </g>
 <path d="m 25 13 -13 6 0 12 13 6 13 -6 0 -12 -13 -6 z m -2 3.5 0 7.5 -4 0 0 -5.945 l 4 -1.555 m 4 0 4 1.555 l 0 5.945 -4 0 0 -7.5 m -10 2.334 0 5.166 l -3 0 0 -4 3 -1.166 z m 16 0 l 3 1.166 l 0 4 -3 0 0 -5.166 z m -19 7.166 3 0 0 5.166 -3 -1.166 0 -4 m 5 0 4 0 0 7.5 l -4 -1.555 0 -5.945 m 8 0 4 0 0 5.945 l -4 1.555 0 -7.5 m 6 0 3 0 0 4 -3 1.166 l 0 -5.166" mix-blend-mode="normal" isolation="auto" white-space="normal" solid-opacity="1" solid-color="#000000" style="visibility:visible;shape-rendering:auto;color-interpolation-filters:linearRGB;fill:#000;opacity:1;image-rendering:auto;fill-opacity:0.102;stroke:none;display:inline;color:#000;fill-rule:evenodd;color-rendering:auto;color-interpolation:sRGB"/>
 <g>
  <path d="m 24 12 -13 6 0 12 13 6 z m -2 3.5 0 17 -9 -3.5 0 -10 z" mix-blend-mode="normal" isolation="auto" white-space="normal" solid-opacity="1" solid-color="#000000" style="visibility:visible;shape-rendering:auto;color-interpolation-filters:linearRGB;fill:#0e0e72;opacity:1;image-rendering:auto;fill-opacity:1;stroke:none;display:inline;color:#000;fill-rule:evenodd;color-rendering:auto;color-interpolation:sRGB"/>
  <rect y="23" x="12" height="2" width="11" style="stroke-dasharray:none;fill:#0e0e72;stroke-miterlimit:4;fill-opacity:1;stroke-width:2"/>
  <rect y="16" x="16" height="16" width="2" style="stroke-dasharray:none;fill:#0e0e72;stroke-miterlimit:4;fill-opacity:1;stroke-width:2"/>
  <path d="m 24 12 13 6 0 12 -13 6 z m 2 3.5 0 17 9 -3.5 0 -10 z" mix-blend-mode="normal" isolation="auto" white-space="normal" solid-opacity="1" solid-color="#000000" style="visibility:visible;shape-rendering:auto;color-interpolation-filters:linearRGB;fill:#7979b2;opacity:1;image-rendering:auto;fill-opacity:1;stroke:none;display:inline;color:#000;fill-rule:evenodd;color-rendering:auto;color-interpolation:sRGB"/>
  <rect transform="scale(-1,1)" width="11" height="2" x="-36" y="23" style="stroke-dasharray:none;fill:#7979b2;stroke-miterlimit:4;fill-opacity:1;stroke-width:2"/>
  <rect transform="scale(-1,1)" width="2" height="16" x="-32" y="16" style="stroke-dasharray:none;fill:#7979b2;stroke-miterlimit:4;fill-opacity:1;stroke-width:2"/>
 </g>
</svg>

<svg xmlns="http://www.w3.org/2000/svg" viewBox="0 0 48 48">
  <defs>
    <linearGradient id="a" x1="1" x2="47" gradientUnits="userSpaceOnUse" gradientTransform="rotate(-90 24 24)">
      <stop stop-color="#dfdfdf"/>
      <stop offset="1" stop-color="#e9e9e9"/>
    </linearGradient>
  </defs>
  <path d="M36.31 5c5.859 4.062 9.688 10.831 9.688 18.5 0 12.426-10.07 22.5-22.5 22.5-7.669 0-14.438-3.828-18.5-9.688a23.24 23.24 0 0 0 3.781 4.969 22.923 22.923 0 0 0 15.469 5.969c12.703 0 23-10.298 23-23a22.92 22.92 0 0 0-5.969-15.469A23.216 23.216 0 0 0 36.31 5zm4.969 3.781A22.911 22.911 0 0 1 47.498 24.5c0 12.703-10.297 23-23 23a22.909 22.909 0 0 1-15.719-6.219C12.939 45.425 18.662 48 24.998 48c12.703 0 23-10.298 23-23 0-6.335-2.575-12.06-6.719-16.219z" opacity=".05"/>
  <path d="M41.28 8.781a22.923 22.923 0 0 1 5.969 15.469c0 12.703-10.297 23-23 23A22.92 22.92 0 0 1 8.78 41.281 22.911 22.911 0 0 0 24.499 47.5c12.703 0 23-10.298 23-23A22.909 22.909 0 0 0 41.28 8.781z" opacity=".1"/>
  <path d="M31.25 2.375C39.865 5.529 46 13.792 46 23.505c0 12.426-10.07 22.5-22.5 22.5-9.708 0-17.971-6.135-21.12-14.75a23 23 0 0 0 44.875-7 23 23 0 0 0-16-21.875z" opacity=".2"/>
  <path d="M24 1c12.703 0 23 10.297 23 23S36.703 47 24 47 1 36.703 1 24 11.297 1 24 1z" fill="url(#a)"/>
  <path d="M40.03 7.531A22.922 22.922 0 0 1 45.999 23c0 12.703-10.297 23-23 23A22.92 22.92 0 0 1 7.53 40.031C11.708 44.322 17.54 47 23.999 47c12.703 0 23-10.298 23-23 0-6.462-2.677-12.291-6.969-16.469z" opacity=".1"/>
  <path d="M25 13l-13 6v12l13 6 13-6V19l-13-6zm-2 3.5V24h-4v-5.945l4-1.555m4 0l4 1.555V24h-4v-7.5m-10 2.334V24h-3v-4l3-1.166zm16 0L36 20v4h-3v-5.166zM14 26h3v5.166L14 30v-4m5 0h4v7.5l-4-1.555V26m8 0h4v5.945L27 33.5V26m6 0h3v4l-3 1.166V26" white-space="normal" solid-color="#000000" fill-opacity=".102" color="#000" fill-rule="evenodd"/>
  <g>
    <path d="M24 12l-13 6v12l13 6zm-2 3.5v17L13 29V19z" white-space="normal" solid-color="#000000" fill="#0e0e72" color="#000" fill-rule="evenodd"/>
    <path fill="#0e0e72" d="M12 23h11v2H12z"/>
    <path fill="#0e0e72" d="M16 16h2v16h-2z"/>
    <path d="M24 12l13 6v12l-13 6zm2 3.5v17l9-3.5V19z" white-space="normal" solid-color="#000000" fill="#7979b2" color="#000" fill-rule="evenodd"/>
    <path fill="#7979b2" d="M36 23H25v2h11z"/>
    <path fill="#7979b2" d="M32 16h-2v16h2z"/>
  </g>
</svg>
